images/brbc.svg

<svg height="250" viewBox="0 0 250 250" width="250" xmlns="http://www.w3.org/2000/svg"><path d="m250 125c0 69.035156-55.964844 125-125 125s-125-55.964844-125-125 55.964844-125 125-125 125 55.964844 125 125zm0 0" fill="#fff"/><path d="m208.332031 76.015625-84.292969-49.972656-82.199218 49.074219-.171875 98.867187 82.894531 49.972656 83.769531-48.894531zm-84.117187-34.875 62.257812 37.03125-61.910156 37.03125-62.257812-37.03125zm-7.171875 162.324219-62.609375-36.851563v-73.699219l62.433594 37.027344v73.523438zm16.089843-72.441406 62.433594-37.03125v73.519531l-62.433594 37.210937zm0 0" fill="#4aa956"/></svg>

<svg xmlns="http://www.w3.org/2000/svg" xmlns:xlink="http://www.w3.org/1999/xlink" width="250px" height="250px" viewBox="0 0 250 250" version="1.1">
<g id="surface1">
<path style=" stroke:none;fill-rule:nonzero;fill:rgb(100%,100%,100%);fill-opacity:1;" d="M 250 125 C 250 194.035156 194.035156 250 125 250 C 55.964844 250 0 194.035156 0 125 C 0 55.964844 55.964844 0 125 0 C 194.035156 0 250 55.964844 250 125 Z M 250 125 "/>
<path style=" stroke:none;fill-rule:nonzero;fill:rgb(29.019609%,66.274512%,33.725491%);fill-opacity:1;" d="M 208.332031 76.015625 L 124.039062 26.042969 L 41.839844 75.117188 L 41.667969 173.984375 L 124.5625 223.957031 L 208.332031 175.0625 Z M 124.214844 41.140625 L 186.472656 78.171875 L 124.5625 115.203125 L 62.304688 78.171875 Z M 117.042969 203.464844 L 54.433594 166.613281 L 54.433594 92.914062 L 116.867188 129.941406 L 116.867188 203.464844 Z M 133.132812 131.023438 L 195.566406 93.992188 L 195.566406 167.511719 L 133.132812 204.722656 Z M 133.132812 131.023438 "/>
</g>
</svg>
